X: 143
T: Tailor's Twist, The
C: R-70
C: Irish
M: C|
Z: Transcribed to abc by Mary Lou Knack
R: hornpipe
K: D
FE| "D"DA,FD AFdA| "G"Bged "A"Abag| "D"fedc "G"Bged| "Em"(3cdc (3BcB "A"AGFE|
    "D"DA,FD AFdA| "G"Bged "A"Abag| "D"fedc "A"Bgec| "D"d2f2 d2 :|
|:\
fg|"D"a^gaf "D7"df=ga| "G"bagf "A"eAce| "Em"gfge cdef| "A"(3gag (3fgf egfe|
   "D"df (3edc dAFA| "G"Bged "A"cbag| "D"fedc "A"Bgec| "D"d2f2 d2:|
%%text 9/1/98.  Hornpipe
% ---------- page 74 ----------
